docs/local/img/sprites/equipment.svg

<svg width="24" height="25" viewBox="0 0 24 25" xmlns="http://www.w3.org/2000/svg">
<path d="M21.7902 11.2133L21.8801 11.1436L23.2467 10.0831L23.2468 10.0831C23.3897 9.97223 23.4679 9.79759 23.4555 9.61898C23.443 9.43804 23.3418 9.27623 23.1861 9.18711L23.1849 9.18643L8.91584 0.966167C8.05371 0.484631 7.06146 0.369966 6.11096 0.644942L6.11077 0.644994C5.16097 0.919381 4.3798 1.54699 3.90832 2.41565L3.90813 2.41601L3.02896 4.03267L3.02889 4.03281C2.0817 5.7733 2.71504 7.99125 4.42664 8.96552L4.43116 8.96809L4.43115 8.96811L10.3249 12.4046L10.6759 12.6092L10.5474 12.9947L9.28801 16.7717C9.28801 16.7717 9.28801 16.7717 9.288 16.7717C8.79386 18.2541 7.41105 19.2501 5.84909 19.2501H2.08138H1.58138V18.7501V15.6251C1.58138 15.3262 1.33857 15.0834 1.03971 15.0834C0.740856 15.0834 0.498047 15.3262 0.498047 15.6251V23.9584C0.498047 24.2572 0.740856 24.5001 1.03971 24.5001C1.33857 24.5001 1.58138 24.2572 1.58138 23.9584V20.8334V20.3334H2.08138H5.84909C7.87878 20.3334 9.67406 19.0397 10.3153 17.1149L10.3154 17.1148L11.4373 13.7512L11.6319 13.1676L12.1634 13.4775L15.1589 15.224C15.7209 15.543 16.3391 15.7042 16.9637 15.7042C17.2993 15.7042 17.6387 15.6576 17.9738 15.5629C18.303 15.4688 18.6113 15.3336 18.8928 15.1618L19.1412 15.0102L19.3958 15.1513L21.0541 16.0711L21.0542 16.0712C21.4265 16.2778 21.8969 16.1416 22.1018 15.7668L21.7902 11.2133ZM21.7902 11.2133L21.7861 11.2214C21.609 11.3726 21.4526 11.5466 21.3213 11.7424L21.0182 12.1945L21.4943 12.4582L22.6785 13.1144C22.6785 13.1144 22.6786 13.1145 22.6786 13.1145C23.0489 13.32 23.1835 13.7844 22.9811 14.1553L22.981 14.1554L22.102 15.7666L21.7902 11.2133ZM17.6774 14.5196L17.6776 14.5195C18.3479 14.3287 18.9038 13.8857 19.2381 13.2727L20.2441 11.4293C20.4885 10.9819 20.8143 10.5987 21.2155 10.2882L21.2165 10.2874L21.3571 10.1781L21.9442 9.72141L21.2997 9.35013L8.38304 1.90951L8.38305 1.90949L8.3793 1.90737C7.99597 1.69094 7.5672 1.58235 7.1345 1.58235C6.89131 1.58235 6.6494 1.61749 6.41311 1.68482L6.41311 1.68482L6.41106 1.68541C5.74406 1.87856 5.19063 2.32123 4.85867 2.93329C4.85861 2.9334 4.85855 2.9335 4.8585 2.93361L3.97963 4.54973L3.97951 4.54995C3.31263 5.77772 3.75491 7.33527 4.96922 8.02806L15.6983 14.283L15.6983 14.2831L15.7031 14.2858C16.301 14.6256 17.007 14.71 17.6774 14.5196Z" fill="none"/>
</svg>

<svg width="24" height="25" viewBox="0 0 24 25" xmlns="http://www.w3.org/2000/svg"><path d="M21.79 11.213l.09-.07 1.367-1.06a.541.541 0 00-.06-.896h-.002L8.915.966A3.631 3.631 0 006.112.644a3.633 3.633 0 00-2.203 1.77v.001L3.03 4.033c-.947 1.74-.314 3.958 1.398 4.933l.004.002 5.894 3.437.35.204-.128.386-1.259 3.777A3.621 3.621 0 015.85 19.25H1.581v-3.625a.542.542 0 00-1.083 0v8.333a.542.542 0 001.083 0v-3.625H5.85a4.701 4.701 0 004.466-3.218l1.122-3.364.195-.583.531.31 2.996 1.746a3.645 3.645 0 002.815.339c.329-.094.637-.23.919-.401l.248-.152.255.141 1.658.92a.77.77 0 001.048-.304l-.312-4.554zm0 0l-.004.008a2.556 2.556 0 00-.465.521l-.303.452.476.264 1.184.656a.77.77 0 01.303 1.041l-.879 1.612-.312-4.554zm-4.113 3.307a2.566 2.566 0 001.561-1.247l1.006-1.844c.244-.447.57-.83.971-1.14l.002-.002.14-.109.587-.457-.644-.37L8.383 1.91l-.004-.003a2.528 2.528 0 00-1.244-.325 2.63 2.63 0 00-.722.103h-.002A2.566 2.566 0 004.86 2.933L3.98 4.55a2.595 2.595 0 00.99 3.478l10.73 6.255.004.003c.598.34 1.304.424 1.974.234z" fill="none"/></svg> 13.1676L12.1634 13.4775L15.1589 15.224C15.7209 15.543 16.3391 15.7042 16.9637 15.7042C17.2993 15.7042 17.6387 15.6576 17.9738 15.5629C18.303 15.4688 18.6113 15.3336 18.8928 15.1618L19.1412 15.0102L19.3958 15.1513L21.0541 16.0711L21.0542 16.0712C21.4265 16.2778 21.8969 16.1416 22.1018 15.7668L21.7902 11.2133ZM21.7902 11.2133L21.7861 11.2214C21.609 11.3726 21.4526 11.5466 21.3213 11.7424L21.0182 12.1945L21.4943 12.4582L22.6785 13.1144C22.6785 13.1144 22.6786 13.1145 22.6786 13.1145C23.0489 13.32 23.1835 13.7844 22.9811 14.1553L22.981 14.1554L22.102 15.7666L21.7902 11.2133ZM17.6774 14.5196L17.6776 14.5195C18.3479 14.3287 18.9038 13.8857 19.2381 13.2727L20.2441 11.4293C20.4885 10.9819 20.8143 10.5987 21.2155 10.2882L21.2165 10.2874L21.3571 10.1781L21.9442 9.72141L21.2997 9.35013L8.38304 1.90951L8.38305 1.90949L8.3793 1.90737C7.99597 1.69094 7.5672 1.58235 7.1345 1.58235C6.89131 1.58235 6.6494 1.61749 6.41311 1.68482L6.41311 1.68482L6.41106 1.68541C5.74406 1.87856 5.19063 2.32123 4.85867 2.93329C4.85861 2.9334 4.85855 2.9335 4.8585 2.93361L3.97963 4.54973L3.97951 4.54995C3.31263 5.77772 3.75491 7.33527 4.96922 8.02806L15.6983 14.283L15.6983 14.2831L15.7031 14.2858C16.301 14.6256 17.007 14.71 17.6774 14.5196Z" fill="none"/>
</svg>
